X:1
T:Cape Cod, 75.75.77.75
T:Dan Ward Milam, 1914
T:Cape Cod, 75.75.77.75
T:Public Domain
C:Dan Ward Milam, 1914
Z:Public Domain
%%score ( 1 2 ) ( 3 4 )
L:1/8
M:6/8
K:F
V:1 treble 
V:2 treble 
V:3 bass 
V:4 bass 
V:1
 [CF]2 [CF] [CF]2 [CG] | [FA]2 [FB] [Fc]3 | [Fc]2 [FA] [GB]2 [FA] | [FA]3 [EG]2 z | %4
 [CF]2 [CF] [CF]2 [CG] | [FA]2 [FB] [Fc]3 | [Fc]2 [FB] (FD)[EG] | (c[Dd][Ee] f[Gg][Aa]) | %8
 [Fc]2 [FA] [Fd]2 [Fc] | [Ec]2 [CE] (z [DF][^D^F]) | [EG]2 [FA] [EB]2 [Ec] | [FB]2 F (CFA) | %12
 [Fc]2 [FA] [Fd]2 [Fc] | [Ec]2 [CE] (z FA) | [Ec]2 [EB] (FD)[EG] | [CF]6 |] %16
V:2
 x6 | x6 | x6 | x6 | x6 | x6 | x3 A2 x | [C-F]3 [CF]2 x | x6 | x3 [CE]3 | x6 | x2 F [FA]3 | x6 | %13
 x3 [CE]3 | x3 A2 x | x6 |] %16
V:3
 [F,A,]2 [F,A,] [F,A,]2 [F,B,] | [F,C]2 [F,G,] [F,A,]3 | [F,A,]2 [F,C] [E,C]2 [F,C] | %3
 [C,C]3- [C,C]2 z | [F,A,]2 [F,A,] [F,A,]2 [F,B,] | [F,C]2 [F,G,] [F,A,]3 | %6
 [C,A,]2 [C,G,] [C,C]2 [C,B,] | (z C,A,, [F,,F,A,]3) | [F,A,]2 [F,C] [F,B,]2 [F,A,] | %9
 [G,B,]2 [C,B,] [C,B,]3 | [B,C]2 [A,C] [G,C]2 [C,C] | [F,D]2 [F,_D] [F,C]3 | %12
 [F,A,]2 [F,C] [F,B,]2 [F,A,] | [G,B,]2 [C,B,] [C,B,]3 | [C,G,]2 [C,D] [C,C]2 [C,B,] | %15
 (z C,A,, [F,,F,A,]3) |] %16
V:4
 x6 | x6 | x6 | x6 | x6 | x6 | x6 | [F,-A,]3 x3 | x6 | x6 | x6 | x6 | x6 | x6 | x6 | [F,A,-]3 x3 |] %16

